public/assets/request.svg

<svg xmlns="http://www.w3.org/2000/svg" width="21" height="20" viewBox="0 0 21 20" fill="none">
  <path d="M15.7974 1.3451C15.975 1.04911 16.3589 0.953134 16.6549 1.13073L16.3333 1.66666C16.6549 1.13073 16.6546 1.13056 16.6549 1.13073L16.656 1.13142L16.6574 1.13221L16.6604 1.13409L16.6684 1.13902C16.6746 1.14284 16.6823 1.1477 16.6914 1.15363C16.7098 1.16549 16.734 1.18164 16.7634 1.20217C16.822 1.24318 16.9011 1.30193 16.9939 1.37923C17.179 1.53347 17.421 1.76388 17.6621 2.07726C18.1478 2.7087 18.625 3.67278 18.625 4.99999C18.625 6.3272 18.1478 7.29128 17.6621 7.92273C17.421 8.2361 17.179 8.46652 16.9939 8.62076C16.9011 8.69805 16.822 8.7568 16.7634 8.79782C16.734 8.81835 16.7098 8.83449 16.6914 8.84635C16.6823 8.85228 16.6746 8.85715 16.6684 8.86096L16.6604 8.86589L16.6574 8.86777L16.656 8.86856C16.6558 8.86873 16.6549 8.86926 16.3333 8.33333L16.6549 8.86926C16.3589 9.04685 15.975 8.95087 15.7974 8.65489C15.6206 8.36015 15.715 7.97822 16.008 7.79965L16.0127 7.7967C16.0187 7.79277 16.0303 7.78515 16.0465 7.77378C16.0791 7.75099 16.1301 7.71339 16.1936 7.66048C16.321 7.5543 16.4957 7.38888 16.6713 7.16059C17.0189 6.7087 17.375 6.00612 17.375 4.99999C17.375 3.99387 17.0189 3.29128 16.6713 2.8394C16.4957 2.6111 16.321 2.44568 16.1936 2.33951C16.1301 2.28659 16.0791 2.24899 16.0465 2.22621C16.0303 2.21483 16.0187 2.20721 16.0127 2.20328L16.0081 2.20034C15.715 2.02177 15.6206 1.63984 15.7974 1.3451Z" fill="#5C5C7B"/>
  <path fill-rule="evenodd" clip-rule="evenodd" d="M8.83333 1.04166C6.64721 1.04166 4.875 2.81387 4.875 4.99999C4.875 7.18612 6.64721 8.95833 8.83333 8.95833C11.0195 8.95833 12.7917 7.18612 12.7917 4.99999C12.7917 2.81387 11.0195 1.04166 8.83333 1.04166ZM6.125 4.99999C6.125 3.50422 7.33756 2.29166 8.83333 2.29166C10.3291 2.29166 11.5417 3.50422 11.5417 4.99999C11.5417 6.49576 10.3291 7.70833 8.83333 7.70833C7.33756 7.70833 6.125 6.49576 6.125 4.99999Z" fill="#5C5C7B"/>
  <path fill-rule="evenodd" clip-rule="evenodd" d="M8.83333 10.2083C7.13389 10.2083 5.5646 10.6006 4.39846 11.267C3.25 11.9232 2.375 12.9251 2.375 14.1667C2.375 15.4082 3.25 16.4101 4.39846 17.0663C5.5646 17.7327 7.13389 18.125 8.83333 18.125C10.5328 18.125 12.1021 17.7327 13.2682 17.0663C14.4167 16.4101 15.2917 15.4082 15.2917 14.1667C15.2917 12.9251 14.4167 11.9232 13.2682 11.267C12.1021 10.6006 10.5328 10.2083 8.83333 10.2083ZM3.625 14.1667C3.625 13.5673 4.05584 12.9025 5.01863 12.3523C5.96374 11.8122 7.31112 11.4583 8.83333 11.4583C10.3555 11.4583 11.7029 11.8122 12.648 12.3523C13.6108 12.9025 14.0417 13.5673 14.0417 14.1667C14.0417 14.7661 13.6108 15.4309 12.648 15.981C11.7029 16.5211 10.3555 16.875 8.83333 16.875C7.31112 16.875 5.96374 16.5211 5.01863 15.981C4.05584 15.4309 3.625 14.7661 3.625 14.1667Z" fill="#5C5C7B"/>
  <path d="M14.9882 2.79739C14.6922 2.6198 14.3083 2.71578 14.1307 3.01177L14.3376 3.86468L14.3441 3.86911C14.3538 3.87594 14.3723 3.88946 14.3968 3.90982C14.446 3.95089 14.5165 4.01735 14.5879 4.11023C14.7272 4.29128 14.875 4.5772 14.875 4.99999C14.875 5.42278 14.7272 5.7087 14.5879 5.88976C14.5165 5.98263 14.446 6.04909 14.3968 6.09017C14.3723 6.11053 14.3538 6.12404 14.3441 6.13088L14.3376 6.13531C14.0475 6.31485 13.9547 6.69475 14.1307 6.98822C14.3083 7.28421 14.6922 7.38019 14.9882 7.20259L14.6667 6.66666C14.9882 7.20259 14.988 7.20276 14.9882 7.20259L14.9893 7.20192L14.9905 7.2012L14.9932 7.19959L14.9994 7.19576L15.0154 7.18559C15.0276 7.17767 15.043 7.16747 15.0609 7.15492C15.0967 7.12985 15.1433 7.09519 15.197 7.05044C15.304 6.96131 15.4418 6.82985 15.5787 6.6519C15.8561 6.29128 16.125 5.74387 16.125 4.99999C16.125 4.25611 15.8561 3.7087 15.5787 3.34809C15.4418 3.17013 15.304 3.03868 15.197 2.94954C15.1433 2.9048 15.0967 2.87014 15.0609 2.84507C15.043 2.83252 15.0276 2.82231 15.0154 2.8144L14.9994 2.80422L14.9932 2.80039L14.9905 2.79879L14.9893 2.79807C14.9891 2.7979 14.9882 2.79739 14.6667 3.33333L14.9882 2.79739Z" fill="#5C5C7B"/>
</svg>

<svg xmlns="http://www.w3.org/2000/svg" width="21" height="20" viewBox="0 0 21 20" fill="none"><path d="M15.797 1.345a.625.625 0 0 1 .858-.214l-.322.536.322-.536h.001l.001.001.003.002.008.005a1.084 1.084 0 0 1 .095.063 4.427 4.427 0 0 1 .9.875c.485.632.962 1.596.962 2.923s-.477 2.291-.963 2.923a4.423 4.423 0 0 1-.668.698 3.496 3.496 0 0 1-.326.24l-.008.005-.003.002h-.001s-.001.001-.323-.535l.322.536a.625.625 0 0 1-.647-1.07l.005-.002.034-.023a3.172 3.172 0 0 0 .625-.613c.347-.452.703-1.155.703-2.161s-.356-1.709-.704-2.16a3.171 3.171 0 0 0-.624-.614 1.2 1.2 0 0 0-.034-.023l-.005-.003a.625.625 0 0 1-.21-.855Z" fill="#5C5C7B"/><path fill-rule="evenodd" clip-rule="evenodd" d="M8.833 1.042a3.958 3.958 0 1 0 0 7.916 3.958 3.958 0 0 0 0-7.916ZM6.125 5a2.708 2.708 0 1 1 5.417 0 2.708 2.708 0 0 1-5.417 0Zm2.708 5.208c-1.7 0-3.268.393-4.435 1.059-1.148.656-2.023 1.658-2.023 2.9 0 1.241.875 2.243 2.023 2.9 1.167.666 2.736 1.058 4.435 1.058 1.7 0 3.27-.392 4.435-1.059 1.149-.656 2.024-1.658 2.024-2.9 0-1.24-.875-2.243-2.024-2.899-1.166-.666-2.735-1.059-4.435-1.059Zm-5.208 3.959c0-.6.43-1.264 1.394-1.815.945-.54 2.292-.894 3.814-.894 1.522 0 2.87.354 3.815.894.963.55 1.394 1.215 1.394 1.815 0 .6-.431 1.264-1.394 1.814-.945.54-2.293.894-3.815.894-1.522 0-2.87-.354-3.814-.894-.963-.55-1.394-1.215-1.394-1.814Z" fill="#5C5C7B"/><path d="M14.988 2.797a.625.625 0 0 0-.857.215l.207.853.006.004.053.04A1.413 1.413 0 0 1 14.875 5c0 .423-.148.709-.287.89a1.277 1.277 0 0 1-.244.24l-.006.005a.625.625 0 0 0 .65 1.068l-.321-.536.321.536.001-.001h.002l.002-.002.006-.004.016-.01a1.521 1.521 0 0 0 .182-.136 2.51 2.51 0 0 0 .382-.398c.277-.36.546-.908.546-1.652a2.67 2.67 0 0 0-.546-1.652 2.522 2.522 0 0 0-.518-.503 1.502 1.502 0 0 0-.046-.03L15 2.804l-.006-.005-.002-.001h-.002c0-.001 0-.002-.322.534l.321-.536Z" fill="#5C5C7B"/></svg>
